icons/ocamly.svg

<svg width="16" height="16" viewBox="0 0 16 16" fill="none" xmlns="http://www.w3.org/2000/svg">
<path fill-rule="evenodd" clip-rule="evenodd" d="M2 3.2C2 2.53726 2.44772 2 3 2H13C13.5523 2 14 2.53726 14 3.2V12.8C14 13.4627 13.5523 14 13 14H6.68278L6.68278 10.75V10.25C6.68278 10.25 10.1949 9.75 10.8792 6.75C10.8792 6.75 12.1489 6.89942 12.6352 6.39942C13.1216 5.89942 13.1216 4.75 12.6352 4.75H10.5865C10.1949 3.75 8.43882 3.75 8.43882 4.75V5.75C8.43882 7.35 7.85347 7.75 7.26812 7.75C6.68278 7.75 6.09743 7.75 6.09743 6.75C6.09743 4.75 4.92673 4.75 4.34139 4.75C3.37467 4.75 3.11754 5.35612 2.88638 5.90102C2.69764 6.34592 2.52622 6.75 2 6.75V3.2ZM2 10.5V12.8C2 13.4627 2.44772 14 3 14H4.92673L4.34139 10.25L2 10.5Z" fill="#DF9947"/>
</svg>

<svg xmlns="http://www.w3.org/2000/svg" width="16" height="16" fill="none"><path fill="#DF9947" fill-rule="evenodd" d="M2 3.2C2 2.537 2.448 2 3 2h10c.552 0 1 .537 1 1.2v9.6c0 .663-.448 1.2-1 1.2H6.683v-3.75s3.512-.5 4.196-3.5c0 0 1.27.15 1.756-.35.487-.5.487-1.65 0-1.65h-2.049c-.391-1-2.147-1-2.147 0v1c0 1.6-.586 2-1.17 2-.586 0-1.172 0-1.172-1 0-2-1.17-2-1.756-2-.966 0-1.223.606-1.455 1.151-.188.445-.36.849-.886.849V3.2Zm0 7.3v2.3c0 .663.448 1.2 1 1.2h1.927l-.586-3.75L2 10.5Z" clip-rule="evenodd"/></svg>
